icons/skip-forward.svg

<?xml version="1.0" standalone="no"?><!-- Generator: Gravit.io --><svg xmlns="http://www.w3.org/2000/svg" xmlns:xlink="http://www.w3.org/1999/xlink" width="96" height="96"><path d=" M 68.20225030536268 53.533840030830895 L 40.93162158445494 69.20205580502514 L 13.264329173061277 85.16776934708386 L 11.281010720631624 85.76276488281276 C 10.78518110752421 85.96109672805572 10.190185571795315 86.0602626506772 9.595190036066416 85.96109672805572 C 8.107701196744177 85.76276488281276 6.620212357421937 84.9694375018409 5.62855313120711 83.7794464303831 C 4.6368939049922835 82.49028943630383 4.141064291884869 80.90363467436012 4.240230214506352 79.41614583503787 L 4.240230214506352 47.98054836402787 L 4.240230214506352 16.64411681563934 C 4.141064291884869 15.057462053695616 4.6368939049922835 13.470807291751896 5.62855313120711 12.280816220294103 C 6.620212357421937 10.991659226214828 8.107701196744177 10.198331845242967 9.595190036066416 10.000000000000002 C 10.190185571795315 10.000000000000002 10.78518110752421 10.000000000000002 11.281010720631624 10.198331845242967 L 13.264329173061277 10.793327380971864 L 40.93162158445494 26.75904092303057 L 68.20225030536268 42.52642261984632 C 70.2847346804138 43.51808184606115 71.67305759711458 45.69973214373376 71.77222351973604 47.98054836402787 C 71.67305759711458 50.360530506943455 70.2847346804138 52.44301488199459 68.20225030536268 53.533840030830895 Z  M 12.173504024224965 19.321596726419372 L 36.96498467959563 33.70065550653436 L 61.85563125758778 47.98054836402787 L 36.96498467959563 62.359607144142856 L 12.173504024224965 76.63950000163635 L 12.173504024224965 47.98054836402787 L 12.173504024224965 19.321596726419372 Z  M 83.77222351973603 14.222222222222223 C 83.77222351973603 13.061111111111112 84.17222351973604 12.005555555555556 84.97222351973605 11.266666666666667 C 85.67222351973604 10.422222222222224 86.67222351973604 10.000000000000002 87.77222351973603 10.000000000000002 C 88.87222351973602 10.000000000000002 89.87222351973602 10.422222222222224 90.57222351973604 11.266666666666667 C 91.37222351973602 12.005555555555556 91.77222351973603 13.061111111111112 91.77222351973603 14.222222222222223 L 91.77222351973603 81.77777777777777 C 91.77222351973603 82.93888888888888 91.37222351973602 83.99444444444444 90.57222351973604 84.73333333333333 C 89.87222351973602 85.57777777777777 88.87222351973602 86 87.77222351973603 86 C 86.67222351973604 86 85.67222351973604 85.57777777777777 84.97222351973605 84.73333333333333 C 84.17222351973604 83.99444444444444 83.77222351973603 82.93888888888888 83.77222351973603 81.77777777777777 L 83.77222351973603 14.222222222222223 Z " fill-rule="evenodd" fill="#454545" stroke="none"/><mask id="_mask_r1osQevZA4MH7dGhbrWP3YeCCtVHFvsA"><path d=" M 68.20225030536268 53.533840030830895 L 40.93162158445494 69.20205580502514 L 13.264329173061277 85.16776934708386 L 11.281010720631624 85.76276488281276 C 10.78518110752421 85.96109672805572 10.190185571795315 86.0602626506772 9.595190036066416 85.96109672805572 C 8.107701196744177 85.76276488281276 6.620212357421937 84.9694375018409 5.62855313120711 83.7794464303831 C 4.6368939049922835 82.49028943630383 4.141064291884869 80.90363467436012 4.240230214506352 79.41614583503787 L 4.240230214506352 47.98054836402787 L 4.240230214506352 16.64411681563934 C 4.141064291884869 15.057462053695616 4.6368939049922835 13.470807291751896 5.62855313120711 12.280816220294103 C 6.620212357421937 10.991659226214828 8.107701196744177 10.198331845242967 9.595190036066416 10.000000000000002 C 10.190185571795315 10.000000000000002 10.78518110752421 10.000000000000002 11.281010720631624 10.198331845242967 L 13.264329173061277 10.793327380971864 L 40.93162158445494 26.75904092303057 L 68.20225030536268 42.52642261984632 C 70.2847346804138 43.51808184606115 71.67305759711458 45.69973214373376 71.77222351973604 47.98054836402787 C 71.67305759711458 50.360530506943455 70.2847346804138 52.44301488199459 68.20225030536268 53.533840030830895 Z  M 12.173504024224965 19.321596726419372 L 36.96498467959563 33.70065550653436 L 61.85563125758778 47.98054836402787 L 36.96498467959563 62.359607144142856 L 12.173504024224965 76.63950000163635 L 12.173504024224965 47.98054836402787 L 12.173504024224965 19.321596726419372 Z  M 83.77222351973603 14.222222222222223 C 83.77222351973603 13.061111111111112 84.17222351973604 12.005555555555556 84.97222351973605 11.266666666666667 C 85.67222351973604 10.422222222222224 86.67222351973604 10.000000000000002 87.77222351973603 10.000000000000002 C 88.87222351973602 10.000000000000002 89.87222351973602 10.422222222222224 90.57222351973604 11.266666666666667 C 91.37222351973602 12.005555555555556 91.77222351973603 13.061111111111112 91.77222351973603 14.222222222222223 L 91.77222351973603 81.77777777777777 C 91.77222351973603 82.93888888888888 91.37222351973602 83.99444444444444 90.57222351973604 84.73333333333333 C 89.87222351973602 85.57777777777777 88.87222351973602 86 87.77222351973603 86 C 86.67222351973604 86 85.67222351973604 85.57777777777777 84.97222351973605 84.73333333333333 C 84.17222351973604 83.99444444444444 83.77222351973603 82.93888888888888 83.77222351973603 81.77777777777777 L 83.77222351973603 14.222222222222223 Z " fill-rule="evenodd" fill="white" stroke="none"/></mask><path d=" M 68.20225030536268 53.533840030830895 L 40.93162158445494 69.20205580502514 L 13.264329173061277 85.16776934708386 L 11.281010720631624 85.76276488281276 C 10.78518110752421 85.96109672805572 10.190185571795315 86.0602626506772 9.595190036066416 85.96109672805572 C 8.107701196744177 85.76276488281276 6.620212357421937 84.9694375018409 5.62855313120711 83.7794464303831 C 4.6368939049922835 82.49028943630383 4.141064291884869 80.90363467436012 4.240230214506352 79.41614583503787 L 4.240230214506352 47.98054836402787 L 4.240230214506352 16.64411681563934 C 4.141064291884869 15.057462053695616 4.6368939049922835 13.470807291751896 5.62855313120711 12.280816220294103 C 6.620212357421937 10.991659226214828 8.107701196744177 10.198331845242967 9.595190036066416 10.000000000000002 C 10.190185571795315 10.000000000000002 10.78518110752421 10.000000000000002 11.281010720631624 10.198331845242967 L 13.264329173061277 10.793327380971864 L 40.93162158445494 26.75904092303057 L 68.20225030536268 42.52642261984632 C 70.2847346804138 43.51808184606115 71.67305759711458 45.69973214373376 71.77222351973604 47.98054836402787 C 71.67305759711458 50.360530506943455 70.2847346804138 52.44301488199459 68.20225030536268 53.533840030830895 Z  M 12.173504024224965 19.321596726419372 L 36.96498467959563 33.70065550653436 L 61.85563125758778 47.98054836402787 L 36.96498467959563 62.359607144142856 L 12.173504024224965 76.63950000163635 L 12.173504024224965 47.98054836402787 L 12.173504024224965 19.321596726419372 Z  M 83.77222351973603 14.222222222222223 C 83.77222351973603 13.061111111111112 84.17222351973604 12.005555555555556 84.97222351973605 11.266666666666667 C 85.67222351973604 10.422222222222224 86.67222351973604 10.000000000000002 87.77222351973603 10.000000000000002 C 88.87222351973602 10.000000000000002 89.87222351973602 10.422222222222224 90.57222351973604 11.266666666666667 C 91.37222351973602 12.005555555555556 91.77222351973603 13.061111111111112 91.77222351973603 14.222222222222223 L 91.77222351973603 81.77777777777777 C 91.77222351973603 82.93888888888888 91.37222351973602 83.99444444444444 90.57222351973604 84.73333333333333 C 89.87222351973602 85.57777777777777 88.87222351973602 86 87.77222351973603 86 C 86.67222351973604 86 85.67222351973604 85.57777777777777 84.97222351973605 84.73333333333333 C 84.17222351973604 83.99444444444444 83.77222351973603 82.93888888888888 83.77222351973603 81.77777777777777 L 83.77222351973603 14.222222222222223 Z " fill-rule="evenodd" fill="none" stroke="none" stroke-width="16" mask="url(#_mask_r1osQevZA4MH7dGhbrWP3YeCCtVHFvsA)"/></svg>

<svg xmlns="http://www.w3.org/2000/svg" width="96" height="96"><path d="M68.202 53.534l-27.27 15.668-27.668 15.966-1.983.595a3.183 3.183 0 0 1-1.686.198c-1.487-.198-2.975-.992-3.966-2.182-.992-1.289-1.488-2.875-1.389-4.363V16.644c-.099-1.587.397-3.173 1.389-4.363A6.073 6.073 0 0 1 9.595 10c.595 0 1.19 0 1.686.198l1.983.595L40.932 26.76l27.27 15.767c2.083.992 3.471 3.174 3.57 5.455-.099 2.38-1.487 4.462-3.57 5.553zM12.174 19.322L36.965 33.7l24.89 14.28-24.89 14.379-24.791 14.28V19.322zm71.598-5.1c0-1.16.4-2.216 1.2-2.955.7-.845 1.7-1.267 2.8-1.267 1.1 0 2.1.422 2.8 1.267.8.739 1.2 1.794 1.2 2.955v67.556c0 1.16-.4 2.216-1.2 2.955-.7.845-1.7 1.267-2.8 1.267-1.1 0-2.1-.422-2.8-1.267-.8-.739-1.2-1.794-1.2-2.955V14.222z" fill-rule="evenodd" fill="#454545"/></svg>
